X:101
T: ACH JOSEPH LIEBER JOSEPH
N: E0056C
O: Europa, Mitteleuropa, Deutschland, Dillenburg, Eibach
R: erzaehlendes Volks - Lied, Sage, Kinds - Mord
M: 3/4
L: 1/8
K: G
G2 | G2D2Bc | B2G2
Bc | d2c2B2 | A4
AB | c2cedc | BdG2
G2 | A2A2A2 | G4
AB | c2cedc | BdG2
G2 | A2A2A2 | G4

@@@ Tune index: 3751
